X: 31
T:Salmon Tails Up the 
R:Polka
C:via PR
S:Nottingham Music Database
M:2/4
L:1/8
K:A
AF|E>F EC|EA A>B|ce Bc/2B/2|AF dF|\
E>F EC|EA A>B|ce Bc/2B/2|A2 A2:|
ce e2|df f2|ec Bc/2B/2|AF E2|\
ce e2|df f>g|af ge|f2 f>g|
af ge|f/g/f/e/ c>B|ce Bc/B/|AF dF|\
E>F EC|EA A>B|ce Bc/B/|A2 A2:|
